X:818
M:C
L:1/8
Q:1/4=140
K:E Minor
E>FG>A B2 BA:|
|:c|d<G d>e d>BA>B|d>Ge>G B2 B>c|1 d>Gd>e d>BA>B|
|:^d|e>E E2 E/F/G B,2|E>FG>A B>AG>e|G<E E2 E/F/G B,2|
E>FG>A B2B:|
g<be<g B<gA<B|E>FG>A B2 B>A||

